X: 41189
T: Tripswitch
R: reel
M: 4/4
K: Bminor
B2BA Bdfd|e2de fzdB|Afed B2AB|dF~F2 EDFA|
B2BA Bdfd|e2de fa2a|bfab f2ed|dA B/c/d f2ed:|
e2ed f2fd|e2de B2A2|ABd2 dBA2|ABF2 EDBA|
B/c/d e2 edf2|fde2 deB2|b2ba fea2|fedf ed B/c/d||
e2ea f2ed|e2de B2A2|ABd2 dBBA-|ABF2 EDBA|
B/c/d e2 edf2|fde2 deB2|b3a fea2|fedf edBA||

